X: 30
T: No_26_Sun_Dance_Song_(i).krn
N: Derived from No_26_Sun_Dance_Song_(i).krn
%%abc-version 2.0
%%abcx-abcm2ps-target-version 5.9.1 (29 Sep 2008)
%%abc-creator hum2abc beta
%%abcx-conversion-date 2019/03/15 08:36:49
%%humdrum-veritas 852342302
%%humdrum-veritas-data 3016673835
%%linebreak <none>
%%barnumbers 0
L: 1/16
M: 2/4
K: B clef=bass
[K:clef=bass][M:2/4]G6D2 | 
D4C4 ||  
[M:3/4]F/D3/GDD4C4 | 
B,4G,8 ||  
[M:2/4]B,G,3 B,G,3 | 
B,3G,G,4 | 
B,G,3 C3B, | 
B,G,3 C3B, ||  
[M:3/4]B,G,3G,8 | 
G,12 |]  



